tooltip-image-outline.svg

<svg fill="currentColor" viewBox="0 0 24 24"><path d="M4 2h16a2 2 0 0 1 2 2v12a2 2 0 0 1-2 2h-4l-4 4-4-4H4a2 2 0 0 1-2-2V4a2 2 0 0 1 2-2m0 2v12h4.83L12 19.17 15.17 16H20V4zm3.5 2A1.5 1.5 0 0 1 9 7.5 1.5 1.5 0 0 1 7.5 9 1.5 1.5 0 0 1 6 7.5 1.5 1.5 0 0 1 7.5 6M6 14l5-5 2 2 5-5v8z"/></svg>

<svg  viewBox="0 0 24 24" fill="currentColor"><path  d="M4,2H20A2,2 0 0,1 22,4V16A2,2 0 0,1 20,18H16L12,22L8,18H4A2,2 0 0,1 2,16V4A2,2 0 0,1 4,2M4,4V16H8.83L12,19.17L15.17,16H20V4H4M7.5,6A1.5,1.5 0 0,1 9,7.5A1.5,1.5 0 0,1 7.5,9A1.5,1.5 0 0,1 6,7.5A1.5,1.5 0 0,1 7.5,6M6,14L11,9L13,11L18,6V14H6Z"/></svg>
